X:3293
T:Concert, The
S:Treoir, 1993; from James McMahon
M:C
I:speed 300
K:G
|:AG | EA(3AAA AGEF | GABG A^GAB | dBAF G3B | d3e dBAc |
BAGB AGEF | (3GAB GB A2 (3Bcd | eaaf gedB | GABG A2 :|
|:z2 | ea (3aga ba (3aga | eaaf gedg | ea (3aaa a2 ga | agab gedg |
eaag eaag | edef gede | gage d2 ge | dBGB A2:|  


